X:15439
%10703
T:Merry Blacksmith, The
T:Paddy on the Railroad
S:Madison, Wisconsin sessions
N:Cf. Fiddler's Fakebook and O'Neill's. Transcribed by Alan Ng
Z:id:ng-reels-3 transcribed by Alan Ng agng@students.wisc.edu 1995
E:11
M:C|
K:Cmaj
\medskip
G2|c3 G AGEG|GAcG AGEG|GAcd e2 dc|Addc defd|c3 G AGEG|GAcG AGEG|GAcd ecdc|AGAB c2::\
ef|~g3 f ~e3 d|c3 G AGEG|GAcd e2dc|Addc defd|~g3 f ~e3 d|c3 G AGEG|GAcd ecdc|AGAB c2:|**
\bigskip


